X: 3301
T: HIGHLANDER'S JIG
R: Jig.
%R: jig
B: James Kerr "Merry Melodies" v.3 p.32 #301
Z: 2016 John Chambers <jc:trillian.mit.edu>
M: 6/8
L: 1/8
K: A
d |\
c2e ece | fdf ecA | c2e ef=g | B=GB B2d |\
c2e ece | fdf ecA | cec dBG | ABA A2 :|
|: g |\
a2f g2e | fdf ecA | a2f =g2d | B=GB B2^g |\
a2f g2e | fdf ecA | cec dBG | ABA A2 :|

%%sep 1 1 500
%%sep 1 1 500

